pix_core/i/duration.svg

<svg preserveAspectRatio="xMinYMid meet" viewBox="0 0 384 512" xmlns="http://www.w3.org/2000/svg"><path d="m0 32c0-17.7 14.3-32 32-32h32 256 32c17.7 0 32 14.3 32 32s-14.3 32-32 32v11c0 42.4-16.9 83.1-46.9 113.1l-67.8 67.9 67.9 67.9c30 30 46.9 70.7 46.9 113.1v11c17.7 0 32 14.3 32 32s-14.3 32-32 32h-32.1-256-32c-17.7 0-32-14.3-32-32s14.3-32 32-32v-11c0-42.4 16.9-83.1 46.9-113.1l67.8-67.9-67.8-67.9c-30-30-46.9-70.7-46.9-113.1v-11c-17.7 0-32-14.3-32-32zm96 32v11c0 25.5 10.1 49.9 28.1 67.9l67.9 67.8 67.9-67.9c18-18 28.1-42.4 28.1-67.9v-10.9zm0 384h192v-11c0-25.5-10.1-49.9-28.1-67.9l-67.9-67.8-67.9 67.9c-18 18-28.1 42.4-28.1 67.9v11z" fill="#fff"/></svg>

<svg xmlns="http://www.w3.org/2000/svg" viewBox="0 0 384 512" preserveAspectRatio="xMinYMid meet"><!--!Font Awesome Free 6.5.2 by @fontawesome - https://fontawesome.com License - https://fontawesome.com/license/free Copyright 2024 Fonticons, Inc.--><path fill="#fff" d="M0 32C0 14.3 14.3 0 32 0H64 320h32c17.7 0 32 14.3 32 32s-14.3 32-32 32V75c0 42.4-16.9 83.1-46.9 113.1L237.3 256l67.9 67.9c30 30 46.9 70.7 46.9 113.1v11c17.7 0 32 14.3 32 32s-14.3 32-32 32H320 64 32c-17.7 0-32-14.3-32-32s14.3-32 32-32V437c0-42.4 16.9-83.1 46.9-113.1L146.7 256 78.9 188.1C48.9 158.1 32 117.4 32 75V64C14.3 64 0 49.7 0 32zM96 64V75c0 25.5 10.1 49.9 28.1 67.9L192 210.7l67.9-67.9c18-18 28.1-42.4 28.1-67.9V64H96zm0 384H288V437c0-25.5-10.1-49.9-28.1-67.9L192 301.3l-67.9 67.9c-18 18-28.1 42.4-28.1 67.9v11z"/></svg>
